X:34
T:Fingal's Cave
T:Fingal's Weeping
T:Cuilfhionn
R:march
S:Sally Simpson
H:Scottish
Z:id:hn-march-34
M:C|
L:1/8
Q:1/2=60
K:Ador
E<G | A2A2 B>AG<A | B2A2 A2e>d | B2A>G e2d<B | d2G2 G2E<G |
A2A2 B>AG<A | B2A2 A2e>d | B2A>G e2d<B | e2A2 A2 :|
|: B<d | e2d<e g2e<g | a2e<a g3f | e2d<e g2f>g |1 e>dB>A G>AB<d |
e2d<e g2e<g | a2e<a g3f | g>ef>d g>ed<B | e2A2 A2 :|
[2 e>dB<A G>AB<G | c2B<c d2c<d | e2d<e a3f | g>ef>d g>ed<B | e2A2 A2 ||

